Newaita-dark/.places-mint/24/folder-cloud.svg

<?xml version="1.0" encoding="UTF-8"?>
<svg xmlns="http://www.w3.org/2000/svg" xmlns:xlink="http://www.w3.org/1999/xlink" width="24px" height="24px" viewBox="0 0 24 24" version="1.1">
<defs>
<linearGradient id="linear0" gradientUnits="userSpaceOnUse" x1="254" y1="233.5" x2="254" y2="254.666672" gradientTransform="matrix(0.0468795,0,0,0.0468795,-0.0000028613,10.07909)">
<stop offset="0" style="stop-color:rgb(0%,0%,0%);stop-opacity:0.27451;"/>
<stop offset="1" style="stop-color:rgb(0%,0%,0%);stop-opacity:0;"/>
</linearGradient>
<radialGradient id="radial0" gradientUnits="userSpaceOnUse" cx="450.908936" cy="189.579361" fx="450.908936" fy="189.579361" r="21.166656" gradientTransform="matrix(0.000000130628,-0.0585994,-0.105479,-0.0000000761539,40.58641,47.696501)">
<stop offset="0" style="stop-color:rgb(0%,0%,0%);stop-opacity:0.313726;"/>
<stop offset="0.222222" style="stop-color:rgb(0%,0%,0%);stop-opacity:0.27451;"/>
<stop offset="1" style="stop-color:rgb(0%,0%,0%);stop-opacity:0;"/>
</radialGradient>
<radialGradient id="radial1" gradientUnits="userSpaceOnUse" cx="450.908936" cy="189.579361" fx="450.908936" fy="189.579361" r="21.166656" gradientTransform="matrix(-0.000000130628,0.0585994,0.105479,0.0000000761539,-16.771633,-5.645608)">
<stop offset="0" style="stop-color:rgb(0%,0%,0%);stop-opacity:0.313726;"/>
<stop offset="0.222222" style="stop-color:rgb(0%,0%,0%);stop-opacity:0.27451;"/>
<stop offset="1" style="stop-color:rgb(0%,0%,0%);stop-opacity:0;"/>
</radialGradient>
<radialGradient id="radial2" gradientUnits="userSpaceOnUse" cx="450.908936" cy="189.579361" fx="450.908936" fy="189.579361" r="21.166656" gradientTransform="matrix(-0.000000130628,-0.0585994,0.105479,-0.0000000761539,-16.771633,47.696501)">
<stop offset="0" style="stop-color:rgb(0%,0%,0%);stop-opacity:0.313726;"/>
<stop offset="0.222222" style="stop-color:rgb(0%,0%,0%);stop-opacity:0.27451;"/>
<stop offset="1" style="stop-color:rgb(0%,0%,0%);stop-opacity:0;"/>
</radialGradient>
<radialGradient id="radial3" gradientUnits="userSpaceOnUse" cx="450.908936" cy="189.579361" fx="450.908936" fy="189.579361" r="21.166656" gradientTransform="matrix(0.000000130628,0.0585994,-0.105479,0.0000000761539,40.586408,-5.645608)">
<stop offset="0" style="stop-color:rgb(0%,0%,0%);stop-opacity:0.313726;"/>
<stop offset="0.222222" style="stop-color:rgb(0%,0%,0%);stop-opacity:0.27451;"/>
<stop offset="1" style="stop-color:rgb(0%,0%,0%);stop-opacity:0;"/>
</radialGradient>
<linearGradient id="linear1" gradientUnits="userSpaceOnUse" x1="254" y1="-147.5" x2="254" y2="-31.083334" gradientTransform="matrix(0.0468795,0,0,0.0468795,0.000000937315,10.079086)">
<stop offset="0" style="stop-color:rgb(64.313728%,64.313728%,64.313728%);stop-opacity:0;"/>
<stop offset="1" style="stop-color:rgb(100%,100%,100%);stop-opacity:0.196078;"/>
</linearGradient>
<linearGradient id="linear2" gradientUnits="userSpaceOnUse" x1="254" y1="233.5" x2="254" y2="-105.166656" gradientTransform="matrix(0.0468795,0,0,0.0468795,-0.0000013593,10.079087)">
<stop offset="0" style="stop-color:rgb(34.509805%,34.509805%,34.509805%);stop-opacity:0;"/>
<stop offset="1" style="stop-color:rgb(98.039216%,98.039216%,98.039216%);stop-opacity:0.196078;"/>
</linearGradient>
</defs>
<g id="surface1">
<path style=" stroke:none;fill-rule:nonzero;fill:url(#linear0);" d="M 2.976562 21.027344 L 20.839844 21.027344 L 20.839844 22.019531 L 2.976562 22.019531 Z M 2.976562 21.027344 "/>
<path style=" stroke:none;fill-rule:nonzero;fill:url(#radial0);" d="M 20.839844 21.027344 L 22.824219 21.027344 L 22.824219 20.03125 L 20.839844 20.03125 Z M 20.839844 21.027344 "/>
<path style=" stroke:none;fill-rule:nonzero;fill:url(#radial1);" d="M 2.976562 21.027344 L 0.992188 21.027344 L 0.992188 22.019531 L 2.976562 22.019531 Z M 2.976562 21.027344 "/>
<path style=" stroke:none;fill-rule:nonzero;fill:url(#radial2);" d="M 2.976562 21.027344 L 0.992188 21.027344 L 0.992188 20.03125 L 2.976562 20.03125 Z M 2.976562 21.027344 "/>
<path style=" stroke:none;fill-rule:nonzero;fill:url(#radial3);" d="M 20.839844 21.027344 L 22.824219 21.027344 L 22.824219 22.019531 L 20.839844 22.019531 Z M 20.839844 21.027344 "/>
<path style=" stroke:none;fill-rule:nonzero;fill:rgb(61.176473%,80.000001%,39.607844%);fill-opacity:1;" d="M 5.457031 3.164062 L 21.582031 3.164062 C 22.128906 3.164062 22.574219 3.609375 22.574219 4.15625 L 22.574219 7.878906 C 22.574219 8.425781 22.128906 8.871094 21.582031 8.871094 L 5.457031 8.871094 C 4.910156 8.871094 4.464844 8.425781 4.464844 7.878906 L 4.464844 4.15625 C 4.464844 3.609375 4.910156 3.164062 5.457031 3.164062 Z M 5.457031 3.164062 "/>
<path style=" stroke:none;fill-rule:nonzero;fill:url(#linear1);" d="M 5.457031 3.164062 L 21.582031 3.164062 C 22.128906 3.164062 22.574219 3.609375 22.574219 4.15625 L 22.574219 7.878906 C 22.574219 8.425781 22.128906 8.871094 21.582031 8.871094 L 5.457031 8.871094 C 4.910156 8.871094 4.464844 8.425781 4.464844 7.878906 L 4.464844 4.15625 C 4.464844 3.609375 4.910156 3.164062 5.457031 3.164062 Z M 5.457031 3.164062 "/>
<path style=" stroke:none;fill-rule:nonzero;fill:rgb(90.196079%,90.196079%,90.196079%);fill-opacity:0.392157;" d="M 5.457031 3.230469 C 4.90625 3.230469 4.464844 3.671875 4.464844 4.222656 L 4.464844 4.347656 C 4.464844 3.796875 4.90625 3.355469 5.457031 3.355469 L 21.582031 3.355469 C 22.132812 3.355469 22.574219 3.796875 22.574219 4.347656 L 22.574219 4.222656 C 22.574219 3.671875 22.132812 3.230469 21.582031 3.230469 Z M 5.457031 3.230469 "/>
<path style=" stroke:none;fill-rule:nonzero;fill:rgb(12.941177%,12.941177%,12.941177%);fill-opacity:1;" d="M 5.457031 3.09375 C 4.871094 3.09375 4.394531 3.570312 4.394531 4.15625 L 4.394531 7.878906 C 4.394531 8.464844 4.871094 8.941406 5.457031 8.941406 L 21.582031 8.941406 C 22.167969 8.941406 22.644531 8.464844 22.644531 7.878906 L 22.644531 4.15625 C 22.644531 3.570312 22.167969 3.09375 21.582031 3.09375 Z M 5.457031 3.234375 L 21.582031 3.234375 C 22.09375 3.234375 22.503906 3.644531 22.503906 4.15625 L 22.503906 7.878906 C 22.503906 8.390625 22.09375 8.800781 21.582031 8.800781 L 5.457031 8.800781 C 4.945312 8.800781 4.535156 8.390625 4.535156 7.878906 L 4.535156 4.15625 C 4.535156 3.644531 4.945312 3.234375 5.457031 3.234375 Z M 5.457031 3.234375 "/>
<path style=" stroke:none;fill-rule:nonzero;fill:rgb(68.235296%,83.529413%,50.588238%);fill-opacity:1;" d="M 1.984375 5.148438 C 1.433594 5.148438 0.992188 5.589844 0.992188 6.140625 L 0.992188 20.03125 C 0.992188 20.582031 1.433594 21.027344 1.984375 21.027344 L 21.832031 21.027344 C 22.378906 21.027344 22.824219 20.582031 22.824219 20.03125 L 22.824219 7.628906 L 9.425781 7.628906 C 8.878906 7.628906 8.433594 7.1875 8.433594 6.636719 L 8.433594 5.148438 Z M 1.984375 5.148438 "/>
<path style=" stroke:none;fill-rule:nonzero;fill:url(#linear2);" d="M 1.984375 5.148438 C 1.433594 5.148438 0.992188 5.589844 0.992188 6.140625 L 0.992188 20.03125 C 0.992188 20.582031 1.433594 21.027344 1.984375 21.027344 L 21.832031 21.027344 C 22.378906 21.027344 22.824219 20.582031 22.824219 20.03125 L 22.824219 7.628906 L 9.425781 7.628906 C 8.878906 7.628906 8.433594 7.1875 8.433594 6.636719 L 8.433594 5.148438 Z M 1.984375 5.148438 "/>
<path style=" stroke:none;fill-rule:nonzero;fill:rgb(0%,0%,0%);fill-opacity:0.196078;" d="M 1.984375 21.027344 C 1.433594 21.027344 0.992188 20.582031 0.992188 20.03125 L 0.992188 19.910156 C 0.992188 20.457031 1.433594 20.902344 1.984375 20.902344 L 21.832031 20.902344 C 22.378906 20.902344 22.824219 20.457031 22.824219 19.910156 L 22.824219 20.03125 C 22.824219 20.582031 22.378906 21.027344 21.832031 21.027344 Z M 1.984375 21.027344 "/>
<path style=" stroke:none;fill-rule:nonzero;fill:rgb(90.196079%,90.196079%,90.196079%);fill-opacity:0.392157;" d="M 1.984375 5.210938 C 1.433594 5.210938 0.992188 5.652344 0.992188 6.203125 L 0.992188 6.328125 C 0.992188 5.777344 1.433594 5.335938 1.984375 5.335938 L 8.433594 5.335938 L 8.433594 5.210938 Z M 1.984375 5.210938 "/>
<path style=" stroke:none;fill-rule:nonzero;fill:rgb(90.196079%,90.196079%,90.196079%);fill-opacity:0.392157;" d="M 9.363281 7.753906 C 8.816406 7.753906 8.371094 7.3125 8.371094 6.761719 L 8.371094 6.636719 C 8.371094 7.1875 8.816406 7.628906 9.363281 7.628906 L 22.824219 7.628906 L 22.824219 7.753906 Z M 9.363281 7.753906 "/>
<path style=" stroke:none;fill-rule:nonzero;fill:rgb(12.941177%,12.941177%,12.941177%);fill-opacity:1;" d="M 1.984375 5.078125 C 1.398438 5.078125 0.921875 5.554688 0.921875 6.140625 L 0.921875 20.03125 C 0.921875 20.621094 1.398438 21.097656 1.984375 21.097656 L 21.832031 21.097656 C 22.417969 21.097656 22.894531 20.621094 22.894531 20.03125 L 22.894531 7.488281 L 9.425781 7.488281 C 8.914062 7.488281 8.503906 7.078125 8.503906 6.566406 L 8.503906 5.078125 Z M 1.984375 5.21875 L 8.363281 5.21875 L 8.363281 6.566406 C 8.363281 7.15625 8.839844 7.628906 9.425781 7.628906 L 22.753906 7.628906 L 22.753906 20.03125 C 22.753906 20.546875 22.34375 20.957031 21.832031 20.957031 L 1.984375 20.957031 C 1.472656 20.957031 1.0625 20.546875 1.0625 20.03125 L 1.0625 6.140625 C 1.0625 5.628906 1.472656 5.21875 1.984375 5.21875 Z M 1.984375 5.21875 "/>
<path style=" stroke:none;fill-rule:nonzero;fill:rgb(54.509807%,76.47059%,29.019609%);fill-opacity:1;" d="M 12.402344 10.367188 C 11.054688 10.367188 9.960938 11.4375 9.925781 12.777344 C 9.828125 12.753906 9.726562 12.742188 9.621094 12.742188 C 8.90625 12.742188 8.328125 13.320312 8.328125 14.035156 C 8.328125 14.3125 8.414062 14.566406 8.558594 14.777344 C 8.136719 14.910156 7.832031 15.304688 7.832031 15.773438 C 7.832031 16.351562 8.296875 16.816406 8.878906 16.816406 C 8.894531 16.816406 8.914062 16.816406 8.929688 16.816406 L 14.140625 16.816406 L 14.140625 16.808594 C 15.117188 16.710938 15.875 15.890625 15.875 14.886719 C 15.875 14.148438 15.46875 13.511719 14.863281 13.183594 C 14.875 13.074219 14.882812 12.960938 14.882812 12.847656 C 14.882812 11.472656 13.777344 10.367188 12.402344 10.367188 Z M 12.402344 10.367188 "/>
<path style=" stroke:none;fill-rule:nonzero;fill:rgb(0%,0%,0%);fill-opacity:0.235294;" d="M 12.402344 10.300781 C 11.054688 10.300781 9.960938 11.371094 9.925781 12.710938 C 9.828125 12.6875 9.726562 12.675781 9.621094 12.675781 C 8.90625 12.675781 8.328125 13.253906 8.328125 13.96875 C 8.328125 14.007812 8.328125 14.046875 8.332031 14.085938 C 8.394531 13.425781 8.945312 12.914062 9.621094 12.914062 C 9.726562 12.914062 9.828125 12.925781 9.925781 12.949219 C 9.960938 11.609375 11.054688 10.539062 12.402344 10.539062 C 13.738281 10.539062 14.820312 11.582031 14.882812 12.902344 C 14.882812 12.859375 14.882812 12.820312 14.882812 12.78125 C 14.882812 11.40625 13.777344 10.300781 12.402344 10.300781 Z M 14.882812 13.128906 C 14.878906 13.207031 14.871094 13.28125 14.863281 13.355469 C 15.433594 13.664062 15.832031 14.253906 15.871094 14.9375 C 15.875 14.898438 15.875 14.859375 15.875 14.820312 C 15.875 14.089844 15.476562 13.457031 14.882812 13.128906 Z M 8.449219 14.75 C 8.082031 14.914062 7.832031 15.28125 7.832031 15.707031 C 7.832031 15.746094 7.835938 15.785156 7.839844 15.824219 C 7.886719 15.410156 8.171875 15.070312 8.558594 14.945312 C 8.515625 14.886719 8.480469 14.820312 8.449219 14.75 Z M 8.449219 14.75 "/>
<path style=" stroke:none;fill-rule:nonzero;fill:rgb(100%,100%,100%);fill-opacity:0.392157;" d="M 14.882812 12.917969 C 14.878906 12.996094 14.871094 13.066406 14.863281 13.140625 C 14.867188 13.144531 14.875 13.148438 14.882812 13.152344 C 14.882812 13.113281 14.882812 13.074219 14.882812 13.035156 C 14.882812 12.996094 14.882812 12.957031 14.882812 12.917969 Z M 8.332031 14.105469 C 8.328125 14.144531 8.328125 14.183594 8.328125 14.222656 C 8.328125 14.417969 8.371094 14.605469 8.449219 14.773438 C 8.484375 14.757812 8.523438 14.742188 8.558594 14.730469 C 8.433594 14.550781 8.351562 14.339844 8.332031 14.105469 Z M 15.871094 14.957031 C 15.816406 15.910156 15.078125 16.671875 14.140625 16.765625 L 14.140625 16.773438 L 8.929688 16.773438 C 8.914062 16.773438 8.894531 16.773438 8.878906 16.773438 C 8.335938 16.773438 7.894531 16.367188 7.839844 15.84375 C 7.835938 15.882812 7.832031 15.917969 7.832031 15.957031 C 7.832031 16.535156 8.296875 17.003906 8.878906 17.003906 C 8.894531 17.003906 8.914062 17.003906 8.929688 17 L 8.929688 17.003906 L 14.140625 17.003906 L 14.140625 16.992188 C 15.117188 16.894531 15.875 16.074219 15.875 15.070312 C 15.875 15.035156 15.875 14.996094 15.871094 14.957031 Z M 15.871094 14.957031 "/>
<path style="fill:none;stroke-width:3;stroke-linecap:round;stroke-linejoin:round;stroke:rgb(12.941177%,12.941177%,12.941177%);stroke-opacity:1;stroke-miterlimit:4;" d="M 264.558069 6.145548 C 235.810815 6.145548 212.479709 28.976701 211.729781 57.557305 C 209.646646 57.057353 207.480187 56.807377 205.230401 56.807377 C 189.981858 56.807377 177.649702 69.139533 177.649702 84.388077 C 177.649702 90.304178 179.48286 95.720328 182.565899 100.219898 C 173.566759 103.052961 167.067379 111.468824 167.067379 121.467869 C 167.067379 133.800025 176.983099 143.715744 189.39858 143.715744 C 189.731882 143.715744 190.148508 143.715744 190.48181 143.715744 L 301.637862 143.715744 L 301.637862 143.549094 C 322.469206 141.465959 338.634329 123.96763 338.634329 102.553009 C 338.634329 86.804512 329.96849 73.222476 317.053056 66.223145 C 317.303032 63.890034 317.469683 61.473598 317.469683 59.057162 C 317.469683 29.72663 293.888602 6.145548 264.558069 6.145548 Z M 264.558069 6.145548 " transform="matrix(0.0468795,0,0,0.0468795,0,10.079087)"/>
</g>
</svg>

<svg xmlns="http://www.w3.org/2000/svg" width="24" height="24"><defs><linearGradient id="a" gradientUnits="userSpaceOnUse" x1="254" y1="233.5" x2="254" y2="254.667" gradientTransform="matrix(.04688 0 0 .04688 0 10.08)"><stop offset="0" stop-opacity=".275"/><stop offset="1" stop-opacity="0"/></linearGradient><radialGradient id="b" gradientUnits="userSpaceOnUse" cx="450.909" cy="189.579" fx="450.909" fy="189.579" r="21.167" gradientTransform="matrix(0 -.0586 -.10548 0 40.586 47.697)"><stop offset="0" stop-opacity=".314"/><stop offset=".222" stop-opacity=".275"/><stop offset="1" stop-opacity="0"/></radialGradient><radialGradient id="c" gradientUnits="userSpaceOnUse" cx="450.909" cy="189.579" fx="450.909" fy="189.579" r="21.167" gradientTransform="matrix(0 .0586 .10548 0 -16.772 -5.646)"><stop offset="0" stop-opacity=".314"/><stop offset=".222" stop-opacity=".275"/><stop offset="1" stop-opacity="0"/></radialGradient><radialGradient id="d" gradientUnits="userSpaceOnUse" cx="450.909" cy="189.579" fx="450.909" fy="189.579" r="21.167" gradientTransform="matrix(0 -.0586 .10548 0 -16.772 47.697)"><stop offset="0" stop-opacity=".314"/><stop offset=".222" stop-opacity=".275"/><stop offset="1" stop-opacity="0"/></radialGradient><radialGradient id="e" gradientUnits="userSpaceOnUse" cx="450.909" cy="189.579" fx="450.909" fy="189.579" r="21.167" gradientTransform="matrix(0 .0586 -.10548 0 40.586 -5.646)"><stop offset="0" stop-opacity=".314"/><stop offset=".222" stop-opacity=".275"/><stop offset="1" stop-opacity="0"/></radialGradient><linearGradient id="f" gradientUnits="userSpaceOnUse" x1="254" y1="-147.5" x2="254" y2="-31.083" gradientTransform="matrix(.04688 0 0 .04688 0 10.08)"><stop offset="0" stop-color="#a4a4a4" stop-opacity="0"/><stop offset="1" stop-color="#fff" stop-opacity=".196"/></linearGradient><linearGradient id="g" gradientUnits="userSpaceOnUse" x1="254" y1="233.5" x2="254" y2="-105.167" gradientTransform="matrix(.04688 0 0 .04688 0 10.08)"><stop offset="0" stop-color="#585858" stop-opacity="0"/><stop offset="1" stop-color="#fafafa" stop-opacity=".196"/></linearGradient><linearGradient id="h" gradientUnits="userSpaceOnUse" x1="254" y1="-147.5" x2="254" y2="233.5" gradientTransform="matrix(.04688 0 0 .04688 0 10.08)"><stop offset="0" stop-color="#a4a4a4" stop-opacity="0"/><stop offset="1" stop-color="#fff" stop-opacity=".196"/></linearGradient></defs><path d="M2.977 21.027H20.84v.993H2.977zm0 0" fill="url(#a)"/><path d="M20.84 21.027h1.984v-.996H20.84zm0 0" fill="url(#b)"/><path d="M2.977 21.027H.992v.993h1.985zm0 0" fill="url(#c)"/><path d="M2.977 21.027H.992v-.996h1.985zm0 0" fill="url(#d)"/><path d="M20.84 21.027h1.984v.993H20.84zm0 0" fill="url(#e)"/><path d="M5.457 3.164h16.125c.547 0 .992.445.992.992V7.88a.994.994 0 0 1-.992.992H5.457a.994.994 0 0 1-.992-.992V4.156c0-.547.445-.992.992-.992zm0 0" fill="#7cb342"/><path d="M5.457 3.164h16.125c.547 0 .992.445.992.992V7.88a.994.994 0 0 1-.992.992H5.457a.994.994 0 0 1-.992-.992V4.156c0-.547.445-.992.992-.992zm0 0" fill="url(#f)"/><path d="M5.457 3.164a.989.989 0 0 0-.992.992v.125c0-.55.441-.992.992-.992h16.125c.55 0 .992.441.992.992v-.125a.989.989 0 0 0-.992-.992zm0 0" fill="#e6e6e6" fill-opacity=".588"/><path d="M5.457 3.094c-.586 0-1.062.476-1.062 1.062V7.88c0 .586.476 1.062 1.062 1.062h16.125c.586 0 1.063-.476 1.063-1.062V4.156c0-.586-.477-1.062-1.063-1.062zm0 .14h16.125c.512 0 .922.41.922.922V7.88c0 .512-.41.922-.922.922H5.457a.919.919 0 0 1-.922-.922V4.156c0-.511.41-.922.922-.922zm0 0" fill="#212121"/><path d="M1.984 5.148a.989.989 0 0 0-.992.993v13.89c0 .551.442.996.992.996h19.848a.994.994 0 0 0 .992-.996V7.63H9.426a.991.991 0 0 1-.992-.992V5.148zm0 0" fill="#9ccc65"/><path d="M1.984 5.148a.989.989 0 0 0-.992.993v13.89c0 .551.442.996.992.996h19.848a.994.994 0 0 0 .992-.996V7.63H9.426a.991.991 0 0 1-.992-.992V5.148zm0 0" fill="url(#g)"/><path d="M1.984 21.027a.992.992 0 0 1-.992-.996v-.12c0 .546.442.991.992.991h19.848a.994.994 0 0 0 .992-.992v.121c0 .551-.445.996-.992.996zm0 0" fill-opacity=".196"/><path d="M1.984 5.148a.989.989 0 0 0-.992.993v.125c0-.551.442-.993.992-.993h6.45v-.125zm0 0M9.363 7.691a.991.991 0 0 1-.992-.992v-.125c0 .551.445.996.992.992h13.461v.125zm0 0" fill="#e6e6e6" fill-opacity=".937"/><path d="M1.984 5.078c-.586 0-1.062.477-1.062 1.063v13.89c0 .59.476 1.067 1.062 1.067h19.848c.586 0 1.063-.477 1.063-1.067V7.488H9.425a.919.919 0 0 1-.921-.922V5.078zm0 .14h6.38v1.348c0 .59.476 1.063 1.062 1.063h13.328V20.03a.92.92 0 0 1-.922.926H1.984a.92.92 0 0 1-.921-.926V6.141c0-.512.41-.922.921-.922zm0 0" fill="#212121"/><path d="M12.898 9.797c-.773 0-1.437.465-1.746 1.14a1.385 1.385 0 0 0-.632-.148h-.086c-.633 0-1.168.414-1.364.992h-.109a.976.976 0 0 0-.965.992c0 .547.43.993.965.993h3.656c-.199.175-.36.398-.472.644a1.385 1.385 0 0 0-.633-.148h-.086c-.633 0-1.168.414-1.364.992h-.109a.976.976 0 0 0-.965.992c0 .547.43.992.965.992h4.055c1.066 0 1.926-.886 1.926-1.984 0-1.008-.72-1.836-1.66-1.969.41-.363.667-.902.667-1.504 0-1.101-.859-1.984-1.925-1.984zm0 0" fill="#7cb342"/><path d="M12.898 9.797c-.773 0-1.437.465-1.746 1.14a1.385 1.385 0 0 0-.632-.148h-.086c-.633 0-1.168.414-1.364.992h-.109a.976.976 0 0 0-.965.992c0 .547.43.993.965.993h3.656c-.199.175-.36.398-.472.644a1.385 1.385 0 0 0-.633-.148h-.086c-.633 0-1.168.414-1.364.992h-.109a.976.976 0 0 0-.965.992c0 .547.43.992.965.992h4.055c1.066 0 1.926-.886 1.926-1.984 0-1.008-.72-1.836-1.66-1.969.41-.363.667-.902.667-1.504 0-1.101-.859-1.984-1.925-1.984zm0 0" fill="url(#h)"/><path d="M12.898 9.727c-.777 0-1.449.457-1.777 1.125a1.473 1.473 0 0 0-.601-.133h-.086a1.51 1.51 0 0 0-1.41.992H8.96c-.574 0-1.035.476-1.035 1.062 0 .586.46 1.063 1.035 1.063h3.496a2.073 2.073 0 0 0-.344.488 1.473 1.473 0 0 0-.601-.133h-.086a1.51 1.51 0 0 0-1.41.993h-.063c-.574 0-1.035.476-1.035 1.062 0 .586.46 1.063 1.035 1.063h4.055c1.105 0 1.996-.918 1.996-2.055 0-.996-.688-1.82-1.602-2.008.375-.375.61-.887.61-1.465 0-1.136-.89-2.054-1.996-2.054zm0 .14h.118c1.027 0 1.855.852 1.855 1.914a1.94 1.94 0 0 1-.644 1.453l-.118.102.153.02c.906.128 1.601.921 1.601 1.898 0 1.062-.828 1.914-1.855 1.914H9.953a.906.906 0 0 1-.894-.922c0-.516.398-.922.894-.922H10.058l.051.004.02-.05a1.37 1.37 0 0 1 1.297-.946h.086c.218 0 .422.05.601.14l.067.032.03-.066c.11-.239.263-.45.454-.622l.133-.12H8.96a.906.906 0 0 1-.895-.923c0-.515.399-.921.895-.921H9.066l.051.003.02-.05a1.37 1.37 0 0 1 1.297-.946h.086c.218 0 .421.051.601.141l.066.031.032-.066a1.84 1.84 0 0 1 1.68-1.098zm0 0" fill="#212121"/></svg>
